dist/img/svg/s_discount_decor_r.svg

<svg width="90" height="124" viewBox="0 0 90 124" fill="none" xmlns="http://www.w3.org/2000/svg">
<g clip-path="url(#clip0_514_15674)">
<path fill-rule="evenodd" clip-rule="evenodd" d="M10.221 82.7713H26.3629C27.6141 82.7713 28.6945 81.8865 28.9535 80.6511L36.753 43.5995C37.0121 42.3641 38.0924 41.4792 39.3437 41.4792H55.7694C57.0124 41.4792 58.09 40.6055 58.3573 39.3785L66.4269 2.29072C66.6942 1.06364 67.7691 0.189941 69.0148 0.189941H164.571C166.255 0.189941 167.514 1.75926 167.161 3.42319L164.929 14.0217C164.579 15.6856 165.833 17.2521 167.517 17.2549L250.354 17.3829C252.035 17.3857 253.289 18.9522 252.942 20.6134L228.945 134.69C228.686 135.925 227.606 136.81 226.355 136.81H142.36C140.676 136.81 139.42 135.243 139.77 133.579L141.092 127.294C141.442 125.63 140.186 124.063 138.502 124.063H43.53C41.8461 124.063 40.5894 122.497 40.9394 120.833L48.2703 86.0073C48.6204 84.3434 47.3636 82.7769 45.6797 82.7769H30.654C29.4055 82.7769 28.3224 83.6617 28.0634 84.8971L20.2666 121.949C20.0076 123.184 18.9245 124.069 17.676 124.069H2.65028C0.963611 124.069 -0.293124 122.5 0.0596435 120.836L7.62762 84.8971C7.88944 83.6617 8.96979 82.7769 10.2183 82.7769H10.221V82.7713Z" fill="currentColor"/>
</g>
<defs>
<clipPath id="clip0_514_15674">
<rect width="253" height="137" fill="white"/>
</clipPath>
</defs>
</svg>

<svg width="90" height="124" viewBox="0 0 90 124" fill="none" xmlns="http://www.w3.org/2000/svg"><g clip-path="url(#clip0_514_15674)"><path fill-rule="evenodd" clip-rule="evenodd" d="M10.221 82.771h16.142a2.655 2.655 0 002.59-2.12l7.8-37.051a2.655 2.655 0 012.59-2.12H55.77a2.657 2.657 0 002.588-2.101l8.07-37.088A2.654 2.654 0 0169.015.19h95.556c1.684 0 2.943 1.57 2.59 3.233l-2.232 10.599c-.35 1.664.904 3.23 2.588 3.233l82.837.128c1.681.003 2.935 1.57 2.588 3.23L228.945 134.69a2.654 2.654 0 01-2.59 2.12H142.36c-1.684 0-2.94-1.567-2.59-3.231l1.322-6.285c.35-1.664-.906-3.231-2.59-3.231H43.53c-1.684 0-2.94-1.566-2.59-3.23l7.33-34.826c.35-1.664-.906-3.23-2.59-3.23H30.654a2.657 2.657 0 00-2.59 2.12l-7.797 37.052a2.657 2.657 0 01-2.591 2.12H2.65c-1.686 0-2.943-1.569-2.59-3.233l7.568-35.939a2.66 2.66 0 012.59-2.12h.003v-.006z" fill="currentColor"/></g><defs><clipPath id="clip0_514_15674"><path fill="#fff" d="M0 0h253v137H0z"/></clipPath></defs></svg>
